_icons/SVG/025-pikachu.svg

<svg xmlns="http://www.w3.org/2000/svg" width="32" height="32"><path fill="#F7C845" d="M30.726 14.177l-1.298-3.893a1 1 0 00-1.53-.497l-5.036 3.597c.013.138.03.274.035.414.085 2.248.156 4.442.048 6.436-.067 1.246.133 2.48.529 3.658l1.994-1.494a.999.999 0 00.37-1.043L25 18l5.224-2.612c.445-.223.659-.739.502-1.211z"/><path fill="#FFD04D" d="M11 29l-1.794 1.794a.704.704 0 00-.206.498v.003c0 .389.316.705.705.705h2.59a.705.705 0 00.705-.705V29h-2z"/><path fill="#FFD96C" d="M9.054 20.234c-.107-1.995-.036-4.188.048-6.436.14-3.697 3.105-6.767 6.804-6.798.033 0 .061.004.094.004V29c-2 0-3.624 1.257-5.118.846a3.962 3.962 0 01-2.757-2.838 3.99 3.99 0 01.157-2.471c.552-1.373.852-2.825.772-4.303z"/><path fill="#FFE28A" d="M8.289 19.785a1.58 1.58 0 012.351.13l2.014 2.517a1.581 1.581 0 01-2.221 2.221l-1.961-1.569a2.217 2.217 0 01-.183-3.299zm.584-12.807C6.846 3.467 6.936 1.035 7.049.218A.25.25 0 017.395.02c.767.317 2.93 1.471 4.943 4.958.585 1.013.931 1.837 1.129 2.515a6.61 6.61 0 012.44-.492c.032-.001.06.003.093.003V21a7.994 7.994 0 01-6.988-4.111c.017-1.01.052-2.043.091-3.091a7.17 7.17 0 011.652-4.314c-.554-.517-1.186-1.301-1.882-2.506z"/><path fill="#373F3F" d="M7.963 5.169C6.894 2.741 6.957.884 7.049.218A.25.25 0 017.395.02c.614.254 2.17 1.045 3.749 3.159a5.049 5.049 0 00-3.181 1.99z"/><path fill="#F7C845" d="M21 29l1.794 1.794a.704.704 0 01.206.498v.003a.705.705 0 01-.705.705h-2.59a.705.705 0 01-.705-.705V29h2z"/><path fill="#FFD04D" d="M22.946 20.234c.107-1.995.036-4.188-.048-6.436-.14-3.697-3.105-6.767-6.804-6.798-.033 0-.061.004-.094.004V29c2 0 3.624 1.257 5.118.846a3.962 3.962 0 002.757-2.838 3.99 3.99 0 00-.157-2.471c-.552-1.373-.852-2.825-.772-4.303z"/><path fill="#ECCD50" d="M16.575 7.029c-.159-.013-.319-.027-.481-.029a.678.678 0 00-.046.002c.177.001.352.017.527.027z"/><path fill="#FFD96C" d="M23.127 6.978c2.027-3.511 1.937-5.943 1.824-6.76a.25.25 0 00-.346-.198c-.767.317-2.93 1.471-4.943 4.958-.585 1.013-.931 1.837-1.129 2.515A6.625 6.625 0 0016.094 7c-.033 0-.061.004-.094.004V21a7.994 7.994 0 006.988-4.111c-.017-1.01-.052-2.043-.091-3.091a7.17 7.17 0 00-1.652-4.314c.554-.517 1.186-1.301 1.882-2.506z"/><path fill="#2B3332" d="M17 15.501c0-.552-.448-.5-1-.5v1c.552 0 1 .053 1-.5z"/><path fill="#373F3F" d="M16 15.001c-.552 0-1-.052-1 .5s.448.5 1 .5v-1z"/><path fill="#FF8D6E" d="M11 16.467c0 .828-.172 1.5-1 1.5a1.5 1.5 0 010-3c.828 0 1 .671 1 1.5z"/><path fill="#FF805D" d="M21 16.467c0 .828.172 1.5 1 1.5a1.5 1.5 0 000-3c-.828 0-1 .671-1 1.5z"/><path fill="#FFD96C" d="M23.711 19.785a1.58 1.58 0 00-2.351.13l-2.014 2.517a1.581 1.581 0 002.221 2.221l1.961-1.569a2.217 2.217 0 00.183-3.299z"/><circle fill="#96643B" cx="12.5" cy="13.5" r="1.5"/><path fill="#373F3F" d="M12.5 12c-.286 0-.55.084-.777.223A1.481 1.481 0 0011.5 13a1.5 1.5 0 001.5 1.5c.286 0 .55-.084.777-.223.139-.227.223-.491.223-.777a1.5 1.5 0 00-1.5-1.5z"/><circle fill="#FFF" cx="13" cy="13" r=".5"/><circle fill="#8D5B36" cx="19.5" cy="13.5" r="1.5"/><path fill="#2B3332" d="M19.5 12c.286 0 .55.084.777.223.139.227.223.491.223.777a1.5 1.5 0 01-1.5 1.5c-.286 0-.55-.084-.777-.223A1.481 1.481 0 0118 13.5a1.5 1.5 0 011.5-1.5z"/><circle fill="#F7F7F7" cx="19" cy="13" r=".5"/><path fill="#2B3332" d="M24.037 5.169c1.069-2.428 1.006-4.285.914-4.951a.25.25 0 00-.346-.198c-.614.254-2.17 1.045-3.749 3.159a5.049 5.049 0 013.181 1.99z"/></svg>

<?xml version="1.0" encoding="utf-8"?>
<!-- Generator: Adobe Illustrator 23.0.6, SVG Export Plug-In . SVG Version: 6.00 Build 0)  -->
<svg version="1.1" xmlns="http://www.w3.org/2000/svg" xmlns:xlink="http://www.w3.org/1999/xlink" x="0px" y="0px" width="32px"
	 height="32px" viewBox="0 0 32 32" enable-background="new 0 0 32 32" xml:space="preserve">
<g id="icons">
	<g>
		<path fill="#F7C845" d="M30.726,14.177l-1.298-3.893c-0.213-0.638-0.982-0.889-1.53-0.497l-5.036,3.597
			c0.013,0.138,0.03,0.274,0.035,0.414c0.085,2.248,0.156,4.442,0.048,6.436c-0.067,1.246,0.133,2.48,0.529,3.658l1.994-1.494
			c0.322-0.241,0.468-0.652,0.37-1.043L25,18l5.224-2.612C30.669,15.165,30.883,14.649,30.726,14.177z"/>
		<path fill="#FFD04D" d="M11,29l-1.794,1.794C9.074,30.926,9,31.105,9,31.292v0.003C9,31.684,9.316,32,9.705,32h2.59
			C12.684,32,13,31.684,13,31.295V29H11z"/>
		<path fill="#FFD96C" d="M9.054,20.234c-0.107-1.995-0.036-4.188,0.048-6.436C9.242,10.101,12.207,7.031,15.906,7
			C15.939,7,15.967,7.004,16,7.004V29c-2,0-3.624,1.257-5.118,0.846c-1.347-0.371-2.421-1.482-2.757-2.838
			c-0.22-0.887-0.139-1.734,0.157-2.471C8.834,23.164,9.134,21.712,9.054,20.234z"/>
		<path fill="#FFE28A" d="M8.289,19.785L8.289,19.785c0.666-0.666,1.763-0.605,2.351,0.13l2.014,2.517
			c0.503,0.629,0.453,1.535-0.117,2.104l0,0c-0.569,0.569-1.476,0.619-2.104,0.117l-1.961-1.569
			C7.44,22.259,7.354,20.72,8.289,19.785z"/>
		<path fill="#FFE28A" d="M8.873,6.978c-2.027-3.511-1.937-5.943-1.824-6.76C7.072,0.052,7.24-0.044,7.395,0.02
			c0.767,0.317,2.93,1.471,4.943,4.958c0.585,1.013,0.931,1.837,1.129,2.515c0.756-0.307,1.577-0.485,2.44-0.492
			C15.939,7,15.967,7.004,16,7.004V21c-3.006,0-5.621-1.66-6.988-4.111c0.017-1.01,0.052-2.043,0.091-3.091
			c0.061-1.629,0.672-3.135,1.652-4.314C10.201,8.967,9.569,8.183,8.873,6.978z"/>
		<path fill="#373F3F" d="M7.963,5.169C6.894,2.741,6.957,0.884,7.049,0.218C7.072,0.052,7.24-0.044,7.395,0.02
			c0.614,0.254,2.17,1.045,3.749,3.159C9.848,3.407,8.709,4.148,7.963,5.169z"/>
		<path fill="#F7C845" d="M21,29l1.794,1.794C22.926,30.926,23,31.105,23,31.292v0.003C23,31.684,22.684,32,22.295,32h-2.59
			C19.316,32,19,31.684,19,31.295V29H21z"/>
		<path fill="#FFD04D" d="M22.946,20.234c0.107-1.995,0.036-4.188-0.048-6.436C22.758,10.101,19.793,7.031,16.094,7
			C16.061,7,16.033,7.004,16,7.004V29c2,0,3.624,1.257,5.118,0.846c1.347-0.371,2.421-1.482,2.757-2.838
			c0.22-0.887,0.139-1.734-0.157-2.471C23.166,23.164,22.866,21.712,22.946,20.234z"/>
		<g>
			<path fill="#ECCD50" d="M16.575,7.029C16.416,7.016,16.256,7.002,16.094,7c-0.016,0-0.031,0.001-0.046,0.002
				C16.225,7.003,16.4,7.019,16.575,7.029z"/>
		</g>
		<path fill="#FFD96C" d="M23.127,6.978c2.027-3.511,1.937-5.943,1.824-6.76c-0.023-0.166-0.191-0.262-0.346-0.198
			c-0.767,0.317-2.93,1.471-4.943,4.958c-0.585,1.013-0.931,1.837-1.129,2.515C17.777,7.186,16.957,7.008,16.094,7
			C16.061,7,16.033,7.004,16,7.004V21c3.006,0,5.621-1.66,6.988-4.111c-0.017-1.01-0.052-2.043-0.091-3.091
			c-0.061-1.629-0.672-3.135-1.652-4.314C21.799,8.967,22.431,8.183,23.127,6.978z"/>
		<path fill="#2B3332" d="M17,15.501c0-0.552-0.448-0.5-1-0.5v1C16.552,16.001,17,16.054,17,15.501z"/>
		<path fill="#373F3F" d="M16,15.001c-0.552,0-1-0.052-1,0.5c0,0.552,0.448,0.5,1,0.5V15.001z"/>
		<path fill="#FF8D6E" d="M11,16.467c0,0.828-0.172,1.5-1,1.5s-1.5-0.672-1.5-1.5c0-0.828,0.672-1.5,1.5-1.5S11,15.638,11,16.467z"
			/>
		<path fill="#FF805D" d="M21,16.467c0,0.828,0.172,1.5,1,1.5s1.5-0.672,1.5-1.5c0-0.828-0.672-1.5-1.5-1.5S21,15.638,21,16.467z"/>
		<path fill="#FFD96C" d="M23.711,19.785L23.711,19.785c-0.666-0.666-1.763-0.605-2.351,0.13l-2.014,2.517
			c-0.503,0.629-0.453,1.535,0.117,2.104l0,0c0.569,0.569,1.476,0.619,2.104,0.117l1.961-1.569
			C24.56,22.259,24.646,20.72,23.711,19.785z"/>
		<circle fill="#96643B" cx="12.5" cy="13.5" r="1.5"/>
		<path fill="#373F3F" d="M12.5,12c-0.286,0-0.55,0.084-0.777,0.223C11.584,12.45,11.5,12.714,11.5,13c0,0.828,0.672,1.5,1.5,1.5
			c0.286,0,0.55-0.084,0.777-0.223C13.916,14.05,14,13.786,14,13.5C14,12.672,13.328,12,12.5,12z"/>
		<circle fill="#FFFFFF" cx="13" cy="13" r="0.5"/>
		<circle fill="#8D5B36" cx="19.5" cy="13.5" r="1.5"/>
		<path fill="#2B3332" d="M19.5,12c0.286,0,0.55,0.084,0.777,0.223C20.416,12.45,20.5,12.714,20.5,13c0,0.828-0.672,1.5-1.5,1.5
			c-0.286,0-0.55-0.084-0.777-0.223C18.084,14.05,18,13.786,18,13.5C18,12.672,18.672,12,19.5,12z"/>
		<circle fill="#F7F7F7" cx="19" cy="13" r="0.5"/>
		<path fill="#2B3332" d="M24.037,5.169c1.069-2.428,1.006-4.285,0.914-4.951c-0.023-0.166-0.191-0.262-0.346-0.198
			c-0.614,0.254-2.17,1.045-3.749,3.159C22.152,3.407,23.291,4.148,24.037,5.169z"/>
	</g>
</g>
<g id="labels">
</g>
</svg>
